X:2001 
T:Untitled
C:From Ed. Quayle's old tune book
O:Isle of Man
S:From Ed. Quayle's old tune book 
Z:Clague Collection
B:Kiaull Vannin #1
M:4/4  
K:G 
(G-D)|G2 (A-B) c2 (BG)|B2 (A-G) A2 (G-F)|G2 (A-B) c2 B2|(B2-A2) z d2| e2 (d-c) d2 (c-B)|
c2 (B-A) !fermata!B2 cd/e/|(d-B) (G-E) F2 (E-D)|(GDGA B2) (cd/e/)|(d-B) (GB) A2 (DE/F/)| G6||
